Reverse_Phone_Loading/img/Phone.svg

<?xml version="1.0" encoding="utf-8"?>
<!-- Generator: Adobe Illustrator 19.2.1, SVG Export Plug-In . SVG Version: 6.00 Build 0)  -->
<svg version="1.1" id="Layer_1" xmlns="http://www.w3.org/2000/svg" xmlns:xlink="http://www.w3.org/1999/xlink" x="0px" y="0px"
	 viewBox="0 0 59 49" style="enable-background:new 0 0 59 49;" xml:space="preserve">
<style type="text/css">
	.st0{fill:#F5C419;}
	.st1{fill:#FFFFFF;}
</style>
<g>
	<g>
		<path class="st0" d="M29.8,9.3c9.8,0.1,16-0.5,16.8,10.4h12c0-16.9-14.7-19.1-29.1-19.1C15.1,0.5,0.4,2.8,0.4,19.6h11.9
			C13.2,8.5,20.1,9.2,29.8,9.3z"/>
		<path class="st0" d="M6.3,25.1c2.9,0,5.3,0.2,5.9-2.7c0.1-0.4,0.1-0.8,0.1-1.3h-0.1H0.3C0.3,25.3,3,25.1,6.3,25.1z"/>
		<path class="st0" d="M46.7,21h-0.1c0,0.5,0,1,0.1,1.3c0.6,2.6,3,2.5,5.9,2.5c3.3,0,6,0.2,6-3.8C58.7,21,46.7,21,46.7,21z"/>
		<path class="st1" d="M40.9,18.1v-1.7c0-0.8-0.9-0.8-2-0.8h-1.8c-1.1,0-2,0-2,0.8v1.5V19H22.7v-1.1v-1.5c0-0.8-0.9-0.8-2-0.8H19
			c-1.1,0-2,0-2,0.8v1.7v1.5c-2.8,3-12.1,15.5-12.5,17l0,10.2c0,0.9,0.8,1.7,1.7,1.7h45.4c0.9,0,1.7-0.8,1.7-1.7V36.6
			c-0.3-1.5-9.6-14-12.5-17V18.1z M22.1,38c-0.9,0-1.7-0.7-1.7-1.7c0-0.9,0.7-1.7,1.7-1.7c0.9,0,1.7,0.7,1.7,1.7
			C23.7,37.3,23,38,22.1,38z M22.1,32.3c-0.9,0-1.7-0.7-1.7-1.7c0-0.9,0.7-1.7,1.7-1.7c0.9,0,1.7,0.7,1.7,1.7
			C23.7,31.6,23,32.3,22.1,32.3z M22.1,26.7c-0.9,0-1.7-0.7-1.7-1.7c0-0.9,0.7-1.7,1.7-1.7c0.9,0,1.7,0.7,1.7,1.7
			C23.7,25.9,23,26.7,22.1,26.7z M28.9,38c-0.9,0-1.7-0.7-1.7-1.7c0-0.9,0.7-1.7,1.7-1.7c0.9,0,1.7,0.7,1.7,1.7
			C30.6,37.3,29.8,38,28.9,38z M28.9,32.3c-0.9,0-1.7-0.7-1.7-1.7c0-0.9,0.7-1.7,1.7-1.7c0.9,0,1.7,0.7,1.7,1.7
			C30.6,31.6,29.8,32.3,28.9,32.3z M28.9,26.7c-0.9,0-1.7-0.7-1.7-1.7c0-0.9,0.7-1.7,1.7-1.7c0.9,0,1.7,0.7,1.7,1.7
			C30.6,25.9,29.8,26.7,28.9,26.7z M35.7,38c-0.9,0-1.7-0.7-1.7-1.7c0-0.9,0.7-1.7,1.7-1.7s1.7,0.7,1.7,1.7
			C37.4,37.3,36.6,38,35.7,38z M35.7,32.3c-0.9,0-1.7-0.7-1.7-1.7c0-0.9,0.7-1.7,1.7-1.7s1.7,0.7,1.7,1.7
			C37.4,31.6,36.6,32.3,35.7,32.3z M35.7,26.7c-0.9,0-1.7-0.7-1.7-1.7c0-0.9,0.7-1.7,1.7-1.7s1.7,0.7,1.7,1.7
			C37.4,25.9,36.6,26.7,35.7,26.7z"/>
	</g>
</g>
</svg>

<?xml version="1.0" encoding="UTF-8"?>
<svg width="59px" height="49px" viewBox="0 0 59 49" version="1.1" xmlns="http://www.w3.org/2000/svg" xmlns:xlink="http://www.w3.org/1999/xlink">
    <!-- Generator: Sketch 44.1 (41455) - http://www.bohemiancoding.com/sketch -->
    <title>Phone1</title>
    <desc>Created with Sketch.</desc>
    <defs></defs>
    <g id="Page-1" stroke="none" stroke-width="1" fill="none" fill-rule="evenodd">
        <g id="Phone1" fill-rule="nonzero">
            <path d="M29.8,9.3 C39.6,9.4 45.8,8.8 46.6,19.7 L58.6,19.7 C58.6,2.8 43.9,0.6 29.5,0.6 C15.1,0.5 0.4,2.8 0.4,19.6 L12.3,19.6 C13.2,8.5 20.1,9.2 29.8,9.3 Z" id="Shape" fill="#F5C419"></path>
            <path d="M6.3,25.1 C9.2,25.1 11.6,25.3 12.2,22.4 C12.3,22 12.3,21.6 12.3,21.1 L12.2,21.1 L0.3,21.1 C0.3,25.3 3,25.1 6.3,25.1 Z" id="Shape" fill="#F5C419"></path>
            <path d="M46.7,21 L46.6,21 C46.6,21.5 46.6,22 46.7,22.3 C47.3,24.9 49.7,24.8 52.6,24.8 C55.9,24.8 58.6,25 58.6,21 C58.7,21 46.7,21 46.7,21 Z" id="Shape" fill="#F5C419"></path>
            <path d="M40.9,18.1 L40.9,16.4 C40.9,15.6 40,15.6 38.9,15.6 L37.1,15.6 C36,15.6 35.1,15.6 35.1,16.4 L35.1,17.9 L35.1,19 L22.7,19 L22.7,17.9 L22.7,16.4 C22.7,15.6 21.8,15.6 20.7,15.6 L19,15.6 C17.9,15.6 17,15.6 17,16.4 L17,18.1 L17,19.6 C14.2,22.6 4.9,35.1 4.5,36.6 L4.5,46.8 C4.5,47.7 5.3,48.5 6.2,48.5 L51.6,48.5 C52.5,48.5 53.3,47.7 53.3,46.8 L53.3,36.6 C53,35.1 43.7,22.6 40.8,19.6 L40.8,18.1 L40.9,18.1 Z M22.1,38 C21.2,38 20.4,37.3 20.4,36.3 C20.4,35.4 21.1,34.6 22.1,34.6 C23,34.6 23.8,35.3 23.8,36.3 C23.7,37.3 23,38 22.1,38 Z M22.1,32.3 C21.2,32.3 20.4,31.6 20.4,30.6 C20.4,29.7 21.1,28.9 22.1,28.9 C23,28.9 23.8,29.6 23.8,30.6 C23.7,31.6 23,32.3 22.1,32.3 Z M22.1,26.7 C21.2,26.7 20.4,26 20.4,25 C20.4,24.1 21.1,23.3 22.1,23.3 C23,23.3 23.8,24 23.8,25 C23.7,25.9 23,26.7 22.1,26.7 Z M28.9,38 C28,38 27.2,37.3 27.2,36.3 C27.2,35.4 27.9,34.6 28.9,34.6 C29.8,34.6 30.6,35.3 30.6,36.3 C30.6,37.3 29.8,38 28.9,38 Z M28.9,32.3 C28,32.3 27.2,31.6 27.2,30.6 C27.2,29.7 27.9,28.9 28.9,28.9 C29.8,28.9 30.6,29.6 30.6,30.6 C30.6,31.6 29.8,32.3 28.9,32.3 Z M28.9,26.7 C28,26.7 27.2,26 27.2,25 C27.2,24.1 27.9,23.3 28.9,23.3 C29.8,23.3 30.6,24 30.6,25 C30.6,25.9 29.8,26.7 28.9,26.7 Z M35.7,38 C34.8,38 34,37.3 34,36.3 C34,35.4 34.7,34.6 35.7,34.6 C36.7,34.6 37.4,35.3 37.4,36.3 C37.4,37.3 36.6,38 35.7,38 Z M35.7,32.3 C34.8,32.3 34,31.6 34,30.6 C34,29.7 34.7,28.9 35.7,28.9 C36.7,28.9 37.4,29.6 37.4,30.6 C37.4,31.6 36.6,32.3 35.7,32.3 Z M35.7,26.7 C34.8,26.7 34,26 34,25 C34,24.1 34.7,23.3 35.7,23.3 C36.7,23.3 37.4,24 37.4,25 C37.4,25.9 36.6,26.7 35.7,26.7 Z" id="Shape" fill="#FFFFFF"></path>
        </g>
    </g>
</svg>
